X:147
T:The Piper's Despair
M:4/4
L:1/8
F:http://blackrosetheband.googlepages.com/ABCTUNES.ABC May 2009
R:reel
K:G
AG|EFGA BAFA| (3B^cd ed BdAF|D2 (3FED ADFA|Bd ed dBAF|
E2 FA BAFA|(3B^cdec BdAF|D2 FA dfaf|gfed Be e2|
|EFGA BAFA|{^c}BA d{ded}d dBAF|D2 (3FED ADFA|Bd ~d2 dBAF|
E2 FA {^c}BAFA|(3Bcd Ad BdAd|dBAF DFAf|gfed B^cdd|
|:e2 ge beaf|efga ba (3aba f|df (3fgf af (3fgf|df (3fgf afdA|
e2 ge beaf|efga ba (3aba f|~d2f abaf|gfed Be e2:||
